build/logo/RabbitSolid.svg

<svg xmlns="http://www.w3.org/2000/svg" fill="none" viewBox="0 0 24 24" focusable="false"><path d="M0 0H24V24H0z"/><path fill="#74767B" fill-rule="evenodd" d="M5.58262 3.92505C4.67135 3.92505 3.93262 4.66378 3.93262 5.57505L3.93262 10.9117C3.93262 11.0103 3.94133 11.1072 3.95812 11.2017C3.94133 11.2961 3.93262 11.3931 3.93262 11.4916L3.93262 18.2443C3.93262 19.1555 4.67135 19.8943 5.58262 19.8943L18.4176 19.8943C19.3288 19.8943 20.0676 19.1555 20.0676 18.2443L20.0676 11.4916C20.0676 10.5803 19.3288 9.84162 18.4176 9.84162L14.1773 9.84162L14.1773 5.57505C14.1773 4.66378 13.4386 3.92505 12.5273 3.92505L11.488 3.92505C10.5767 3.92505 9.83799 4.66378 9.83799 5.57505L9.83799 9.84162L8.27192 9.84162L8.27192 5.57505C8.27192 4.66378 7.53319 3.92505 6.62192 3.92505L5.58262 3.92505ZM13.5763 14.0864C13.5763 13.7274 13.8673 13.4364 14.2263 13.4364L15.8305 13.4364C16.1895 13.4364 16.4805 13.7274 16.4805 14.0864L16.4805 15.6905C16.4805 16.0495 16.1895 16.3405 15.8305 16.3405L14.2263 16.3405C13.8673 16.3405 13.5763 16.0495 13.5763 15.6905L13.5763 14.0864Z"/></svg>

<svg xmlns="http://www.w3.org/2000/svg" fill="none" viewBox="0 0 24 24" focusable="false"><path fill="#74767B" fill-rule="evenodd" d="M5.58 3.92c-.91 0-1.65.74-1.65 1.65v5.34c0 .1.01.19.02.29-.01.09-.02.19-.02.29v6.75c0 .91.74 1.65 1.65 1.65h12.83c.91 0 1.65-.74 1.65-1.65v-6.75c0-.91-.74-1.65-1.65-1.65h-4.24V5.57c0-.91-.74-1.65-1.65-1.65h-1.04c-.91 0-1.65.74-1.65 1.65v4.27H8.27V5.57c0-.91-.74-1.65-1.65-1.65zm7.99 10.16c0-.36.29-.65.65-.65h1.61c.35 0 .65.29.65.65v1.61c0 .35-.3.65-.65.65h-1.61c-.36 0-.65-.3-.65-.65z"/></svg>
